assets/images/icons/person-icon.svg

<svg width="14" height="14" viewBox="0 0 14 14" fill="none" xmlns="http://www.w3.org/2000/svg">
<path d="M1 13L0.257538 12.8939C0.22679 13.1092 0.290957 13.3272 0.43341 13.4914C0.575863 13.6557 0.782581 13.75 1 13.75V13ZM13 13V13.75C13.2174 13.75 13.4241 13.6557 13.5666 13.4914C13.709 13.3272 13.7732 13.1092 13.7425 12.8939L13 13ZM1.74246 13.1061C1.86031 12.2811 2.27643 11.0151 3.12239 9.97257C3.94882 8.95408 5.179 8.15 7 8.15V6.65C4.661 6.65 3.02451 7.71258 1.95761 9.02743C0.910233 10.3182 0.406356 11.8522 0.257538 12.8939L1.74246 13.1061ZM7 8.15C8.821 8.15 10.0512 8.95408 10.8776 9.97257C11.7236 11.0151 12.1397 12.2811 12.2575 13.1061L13.7425 12.8939C13.5936 11.8522 13.0898 10.3182 12.0424 9.02743C10.9755 7.71258 9.339 6.65 7 6.65V8.15ZM7 7.35C7.58668 7.35 8.45002 7.18016 9.18823 6.64865C9.96468 6.0896 10.55 5.16444 10.55 3.8H9.05C9.05 4.67556 8.70198 5.1504 8.31177 5.43135C7.88332 5.73984 7.34665 5.85 7 5.85V7.35ZM10.55 3.8C10.55 2.43556 9.96468 1.5104 9.18823 0.951349C8.45002 0.419836 7.58668 0.25 7 0.25V1.75C7.34665 1.75 7.88332 1.86016 8.31177 2.16865C8.70198 2.4496 9.05 2.92444 9.05 3.8H10.55ZM7 0.25C6.41332 0.25 5.54998 0.419836 4.81177 0.951349C4.03532 1.5104 3.45 2.43556 3.45 3.8H4.95C4.95 2.92444 5.29802 2.4496 5.68823 2.16865C6.11668 1.86016 6.65335 1.75 7 1.75V0.25ZM3.45 3.8C3.45 5.16444 4.03532 6.0896 4.81177 6.64865C5.54998 7.18016 6.41332 7.35 7 7.35V5.85C6.65335 5.85 6.11668 5.73984 5.68823 5.43135C5.29802 5.1504 4.95 4.67556 4.95 3.8H3.45ZM1 13.75H13V12.25H1V13.75Z" fill="#0070C7"/>
</svg>

<svg width="14" height="14" fill="none" xmlns="http://www.w3.org/2000/svg"><path d="M1 13l-.742-.106A.75.75 0 001 13.75V13zm12 0v.75a.75.75 0 00.742-.856L13 13zm-11.258.106a6.785 6.785 0 011.38-3.133C3.95 8.954 5.18 8.15 7 8.15v-1.5c-2.339 0-3.975 1.063-5.042 2.377a8.281 8.281 0 00-1.7 3.867l1.484.212zM7 8.15c1.821 0 3.051.804 3.878 1.823a6.784 6.784 0 011.38 3.133l1.485-.212a8.282 8.282 0 00-1.7-3.867C10.975 7.713 9.338 6.65 7 6.65v1.5zm0-.8c.587 0 1.45-.17 2.188-.701.777-.56 1.362-1.485 1.362-2.849h-1.5c0 .876-.348 1.35-.738 1.631A2.38 2.38 0 017 5.85v1.5zm3.55-3.55c0-1.364-.585-2.29-1.362-2.849A3.877 3.877 0 007 .25v1.5c.347 0 .883.11 1.312.419.39.28.738.755.738 1.631h1.5zM7 .25c-.587 0-1.45.17-2.188.701-.777.56-1.362 1.485-1.362 2.849h1.5c0-.876.348-1.35.738-1.631A2.38 2.38 0 017 1.75V.25zM3.45 3.8c0 1.364.585 2.29 1.362 2.849A3.877 3.877 0 007 7.35v-1.5a2.38 2.38 0 01-1.312-.419c-.39-.28-.738-.755-.738-1.631h-1.5zM1 13.75h12v-1.5H1v1.5z" fill="#0070C7"/></svg>
